!!!COM: Bach, Johann Sebastian
!!!OPR: Joh. Seb. Bachs vierstimmige Choralges‰nge
!!!XEN: Four-part Chorales
!!!OTL: 41. Der Tag, der ist so freudenreich
!!!SCT: BWV 294
!!!SCA: Thematisch-systematisches Verzeichnis der musikalischen Werke Johann Sebastian Bach: Bach-Werke-Verzeichnis (Schmieder)
!!!YOR: Bach Gesellschaft Edition xxxix
!!!ENC: Steven Rasmussen
!!!CDT: 1685/3//-1750/7/28/
!!!OCY: Deutschland
!!!YEC: Copyright (c) 1994, 2000 Center for Computer Assisted Research in the Humanities
!!!YEM: Rights to all derivative editions reserved
!!!YEN: United States of America
**kern	**kern	**kern	**kern	**silbe
*I:[BASSO]	*I:[TENORE]	*I:[ALTO]	*I:[SOPRANO]	*I:[SOPRANO]
*>[A,A,B]	*>[A,A,B]	*>[A,A,B]	*>[A,A,B]	*
*>A	*>A	*>A	*>A	*
*clefF4	*clefGv2	*clefG2	*clefG2	*
*k[f#]	*k[f#]	*k[f#]	*k[f#]	*
*G:	*G:	*G:	*G:	*
*M4/4	*M4/4	*M4/4	*M4/4	*
8GL	4B	4d	4g	Derdenn
8F#J	.	.	.	.
=1	=1	=1	=1	=1
8EL	4B	4e	4g	Tag,Got-
8DJ	.	.	.	.
8CL	4c	4e	4g	der-tes
8BBJ	.	.	.	.
4AA	4c	8eL	4a	istSohn
.	.	8f#J	.	.
4GG	8dL	4g	4b	sovom
.	8fnJ	.	.	.
=2	=2	=2	=2	=2
4C	4e	4.g	8ccL	freu-Him-
.	.	.	8bJ	.
4D	8AL	.	4a	-den--mel-
.	16dL	8f#	.	.
.	16cJJ	.	.	.
2GG;	2B;	2d;	2g;	-reich-reich
=3	=3	=3	=3	=3
4D	4d	4f#	4a	al-√º-
8AAL	8cL	8eL	4a	-ler-ber
8BBJ	8BJ	8dJ	.	.
4C	8BL	4.e	4e	Cre-die
.	8AJ	.	.	.
4D	8AL	.	4f#	-a-Na-
.	16BL	16dLL	.	.
.	16AJJ	16cJJ	.	.
=4	=4	=4	=4	=4
4E	4.G	8BL	4g	-tu--tu-
.	.	8GJ	.	.
4D	.	4d	4a	.
.	8F#	.	.	.
4GG;	4B;	4d;	4g;	-re,-re
=:|!	=:|!	=:|!	=:|!	=:|!
*>B	*>B	*>B	*>B	*
4G	4B	4d	4g	von
=5	=5	=5	=5	=5
4F#	8AL	4d	4dd	ei-
.	8cJ	.	.	.
8GL	8BL	8gL	4dd	-ner
8F#J	8AJ	8aJ	.	.
4E	4G	8bL	4ee	Jung-
.	.	8ccJ	.	.
4F#	4d	8bL	8ddL	-frau
.	.	8aJ	8ccJ	.
=6	=6	=6	=6	=6
8GL	4d	4g	4b	ist
8F#J	.	.	.	.
4E	4e	4g	4cc#	ge-
4D;	4f#;	4a;	4dd;	-bor'n,
4F#	8dL	4a	4dd	Ma-
.	8cJ	.	.	.
=7	=7	=7	=7	=7
8GL	8BL	4g	4dd	-ri-
8AJ	8cJ	.	.	.
8BL	8dL	4g	4dd	-a
8GJ	8BJ	.	.	.
4c	8cL	4g	4ee	du
.	8BJ	.	.	.
4F#	8AL	4a	8ddL	bist
.	8dJ	.	8ccJ	.
=8	=8	=8	=8	=8
4G	4d	(8a	4b	aus-
.	.	4g)	.	.
4D	8.dL	.	4a	-er-
.	.	8f#	.	.
.	16cJk	.	.	.
2GG;	2B;	2d;	2g;	-kor'n,
=9	=9	=9	=9	=9
8CL	4G	4c	4e	dass
8BBJ	.	.	.	.
4AA	4A	4c	4f#	du
4BB	(8D	(8d	4g	Mut-
.	4G)	4B)	.	.
4C#	.	.	4e	-ter
.	16F#LL	8A	.	.
.	16EJJ	.	.	.
=10	=10	=10	=10	=10
4D	4F#	8AL	4d	w√§-
.	.	8BJ	.	.
4AA	16ELL	4A	4c#	.
.	16F#J	.	.	.
.	8GJ	.	.	.
2DD;	2F#;	2A;	2d;	-rest.
=11	=11	=11	=11	=11
8EL	4B	4e	4g	Was
8DJ	.	.	.	.
8CL	4c	4e	4g	ge-
8BBJ	.	.	.	.
4AA	4c	8eL	4a	-schah
.	.	8f#J	.	.
4GG	8dL	4g	4b	so
.	8fnJ	.	.	.
=12	=12	=12	=12	=12
4C	4e	4.g	8ccL	wun-
.	.	.	8bJ	.
4D	8AL	.	4a	-der-
.	16dL	8f#	.	.
.	16cJJ	.	.	.
2GG;	2B;	2d;	2g;	-lich?
=13	=13	=13	=13	=13
8DDL	8F#L	4d	4a	Got-
8EEJ	8GJ	.	.	.
8FF#L	4A	4d	4a	-tes
8GGJ	.	.	.	.
8AAL	4A	4c#	4e	Sohn
8GGJ	.	.	.	.
4FF#	4A	4d	4f#	vom
=14	=14	=14	=14	=14
4EE	4B	4d	8gL	Him-
.	.	.	8f#J	.
4AA	8EL	4c#	4e	-mel-
.	16AL	.	.	.
.	16GJJ	.	.	.
4D;	4F#;	4A;	4d;	-reich
(4BB	[4G	(4d	(4fn	der
=15	=15	=15	=15	=15
4.C)	4G]	4c)	4e)	.
.	4E	4G	4c	ist
8BB	.	.	.	.
4AA	4A	4c	4e	Mensch
8DL	4A	4d	4f#	ge-
8CJ	.	.	.	.
=16	=16	=16	=16	=16
8BBL	4.G	4.d	4g	-bo-
8GGJ	.	.	.	.
4D	.	.	4a	.
.	8F#	8c	.	.
4GG;	4D;	4B;	4g;	-ren.
==|!	==|!	==|!	==|!	==|!
*-	*-	*-	*-	*-
!!!RWG: Key is interpreted using the Humdrum key tool.
!!!URL-pdf: https://s9.imslp.org/files/imglnks/usimg/6/6b/IMSLP24489-PMLP09471-CCARH_Bach_Chorales.pdf#page=28 Musedata edition
!!!URL-pdf: https://s9.imslp.org/files/imglnks/usimg/7/7a/IMSLP04155-Bach_-_BGA_253-438.pdf#page=23 	Bach-Gesellschaft Ausgabe, Band 39 (pp.175-276) Leipzig: Breitkopf und H‰rtel, 1892. Plate B.W. XXXIX.
!!!END: 1994/05/17
!!!EMD: Converted from MuseData to Humdrum Dec 19, 2000, by Andreas Kornstaedt using muse2kern.
!!!EED: Craig Stuart Sapp
!!!EEV: 2024/03/31
!!!ONB: Some non-unicode characters
!!!filter-keyboard: satb2gs
